src/assets/ikoner/dynamiskAvtale.svg

<?xml version="1.0" encoding="UTF-8"?>
<svg width="55px" height="64px" viewBox="0 0 55 64" version="1.1" xmlns="http://www.w3.org/2000/svg" xmlns:xlink="http://www.w3.org/1999/xlink">
    <!-- Generator: Sketch 55.2 (78181) - https://sketchapp.com -->
    <title>Group 13</title>
    <desc>Created with Sketch.</desc>
    <g id="-----↳-Info-side" stroke="none" stroke-width="1" fill="none" fill-rule="evenodd">
        <g id="Godkjent-avtale---se-hele-avtalen_ny-tekst" transform="translate(-278.000000, -1056.000000)">
            <g id="ark" transform="translate(278.000000, 1056.000000)">
                <g id="Group">
                    <g id="farger/-ark/-lys-grå">
                        <g id="📄-ark">
                            <g id="Group-13" transform="translate(0.000000, -0.000000)">
                                <rect id="Rectangle" fill="#FFFFFF" x="0" y="0" width="55" height="64"></rect>
                                <path d="M0.789473684,10.755 C7.59556787,4.635 10.998615,1.575 10.998615,1.575 C20.4727608,1.575 29.9469067,1.575 39.4210526,1.575 C41.6301916,1.575 43.4210526,3.365861 43.4210526,5.575 L43.4210526,51.125 C43.4210526,53.334139 41.6301916,55.125 39.4210526,55.125 L4.78947368,55.125 C2.58033468,55.125 0.789473684,53.334139 0.789473684,51.125 L0.789473684,10.755 Z" id="Rectangle" fill="#E4E4DB"></path>
                                <path d="M10.998615,1.575 L10.998615,7.96834076 C10.998615,9.50765324 9.68550217,10.755 8.06502985,10.755 L0.789473684,10.755 L10.998615,1.575 Z" id="Fill-59" fill="#C9C9C9"></path>
                                <g id="V⚙️/-dokumenter/-innhold/-tekst" transform="translate(2.360111, 9.225000)" fill="#8F9395">
                                    <g id="Group" transform="translate(6.240000, 4.560000)">
                                        <polygon id="Fill-60" points="0 7.6 26.52 7.6 26.52 5.32 0 5.32"></polygon>
                                        <polygon id="Fill-61" points="0 12.92 26.52 12.92 26.52 10.64 0 10.64"></polygon>
                                        <polygon id="Fill-62" points="0 18.24 26.52 18.24 26.52 15.96 0 15.96"></polygon>
                                        <polygon id="Fill-63" points="0 23.56 26.52 23.56 26.52 21.28 0 21.28"></polygon>
                                        <polygon id="Fill-64" points="0 28.88 26.52 28.88 26.52 26.6 0 26.6"></polygon>
                                        <polygon id="Fill-65" points="0 2.28 26.52 2.28 26.52 0 0 0"></polygon>
                                    </g>
                                </g>
                                <path d="M28.0263158,50.4 C24.9238158,50.4 22.8491447,53.4597 20.8438158,56.41755 C19.0006579,59.1381 17.0948684,61.95 14.6052632,61.95 C11.5217763,61.95 9.01315789,59.59485 9.01315789,56.7 C9.01315789,53.80515 11.5217763,51.45 14.6052632,51.45 C16.5378947,51.45 17.8699342,52.8822 18.5655921,53.8755 L15.8556579,53.39565 C15.5570395,53.34105 15.2595395,53.52795 15.2025,53.81355 C15.1443421,54.0981 15.3445395,54.3732 15.64875,54.42675 L19.5352632,55.11555 C19.5699342,55.12185 19.6046053,55.125 19.6392763,55.125 C19.6403947,55.125 19.6415132,55.12395 19.6415132,55.12395 C19.7142105,55.12395 19.7891447,55.1103 19.8596053,55.08195 C19.8830921,55.0725 19.8965132,55.0557 19.9177632,55.04415 C19.9289474,55.03785 19.9434868,55.041 19.9546711,55.03365 C19.9725658,55.0221 19.9815132,55.0053 19.9971711,54.9927 C20.0240132,54.97065 20.0486184,54.9486 20.0698684,54.92235 C20.0933553,54.89715 20.1101316,54.86985 20.1269079,54.84045 C20.1448026,54.80895 20.1582237,54.7764 20.1682895,54.7428 C20.1738816,54.72705 20.1850658,54.7134 20.1884211,54.69765 L20.9198684,51.0489 C20.9769079,50.76435 20.7778289,50.48925 20.4747368,50.43675 C20.1738816,50.3853 19.8786184,50.56905 19.8215789,50.8557 L19.3697368,53.10585 C18.5096711,51.9372 16.9394079,50.4 14.6052632,50.4 C10.9044079,50.4 7.89473684,53.22555 7.89473684,56.7 C7.89473684,60.17445 10.9044079,63 14.6052632,63 C17.7077632,63 19.7824342,59.9403 21.7877632,56.98245 C23.6309211,54.2619 25.5367105,51.45 28.0263158,51.45 C31.1098026,51.45 33.6184211,53.80515 33.6184211,56.7 C33.6184211,59.59485 31.1098026,61.95 28.0263158,61.95 C25.0423684,61.95 23.5347368,59.6757 23.4721053,59.5791 C23.3121711,59.3313 22.9676974,59.25045 22.7048684,59.40165 C22.4409211,59.5518 22.3548026,59.87205 22.5136184,60.1209 C22.5896711,60.23745 24.3959211,63 28.0263158,63 C31.7271711,63 34.7368421,60.17445 34.7368421,56.7 C34.7368421,53.22555 31.7271711,50.4 28.0263158,50.4 Z" id="line/loop-infinite-2" stroke="#3F3732" stroke-width="0.7" fill="#3E3832"></path>
                            </g>
                        </g>
                    </g>
                </g>
            </g>
        </g>
    </g>
</svg>

<svg width="55" height="64" xmlns="http://www.w3.org/2000/svg"><title>Dynamisk avtale</title><g fill="none" fill-rule="evenodd"><path fill="#FFF" d="M0 0h55v64H0z"/><path d="M.79 10.755l10.209-9.18H39.42a4 4 0 014 4v45.55a4 4 0 01-4 4H4.79a4 4 0 01-4-4v-40.37z" fill="#E4E4DB"/><path d="M10.999 1.575v6.393c0 1.54-1.313 2.787-2.934 2.787H.789L11 1.575z" fill="#C9C9C9"/><g fill="#8F9395"><path d="M8.6 21.385h26.52v-2.28H8.6zM8.6 26.705h26.52v-2.28H8.6zM8.6 32.025h26.52v-2.28H8.6zM8.6 37.345h26.52v-2.28H8.6zM8.6 42.665h26.52v-2.28H8.6zM8.6 16.065h26.52v-2.28H8.6z"/></g><path d="M28.026 50.4c-3.102 0-5.177 3.06-7.182 6.018-1.843 2.72-3.75 5.532-6.239 5.532-3.083 0-5.592-2.355-5.592-5.25s2.509-5.25 5.592-5.25c1.933 0 3.265 1.432 3.96 2.425l-2.71-.48c-.298-.054-.595.133-.652.419-.059.284.142.56.446.613l3.886.689a.58.58 0 00.325-.034c.023-.01.037-.026.058-.038.01-.006.025-.003.037-.01.018-.012.027-.029.042-.041a.495.495 0 00.171-.25c.006-.016.017-.03.02-.045l.732-3.65c.057-.284-.142-.559-.445-.611-.301-.052-.596.132-.653.419l-.452 2.25c-.86-1.169-2.43-2.706-4.765-2.706-3.7 0-6.71 2.826-6.71 6.3 0 3.474 3.01 6.3 6.71 6.3 3.103 0 5.177-3.06 7.183-6.018 1.843-2.72 3.749-5.532 6.238-5.532 3.084 0 5.592 2.355 5.592 5.25s-2.508 5.25-5.592 5.25c-2.984 0-4.491-2.274-4.554-2.37a.579.579 0 00-.767-.178.507.507 0 00-.191.719c.076.116 1.882 2.879 5.512 2.879 3.701 0 6.71-2.826 6.71-6.3 0-3.474-3.009-6.3-6.71-6.3z" stroke="#3F3732" stroke-width=".7" fill="#3E3832"/></g></svg>
